src/assets/images/hide.svg

<?xml version="1.0" encoding="UTF-8"?>
<svg id="Livello_1" data-name="Livello 1" xmlns="http://www.w3.org/2000/svg" viewBox="0 0 45 45" width="45px" height="45px">
  <path class="cls-1" d="M23.375,17.919921875l3.6171875,3.6171875c-.3773460388-1.8291378021-1.8073654175-3.2620887756-3.6171875-3.6171875Z"/>
  <path class="cls-1" d="M31.126953125,25.671875l6.048828125,6.048828125c3.2797050476-2.3846187592,5.9756698608-5.5454235077,7.82421875-9.220703125-4.1799507141-8.3105716705-12.6862602234-14-22.5-14-2.5813064575,0-5.0705566406.3975000381-7.416015625,1.12890625l4.154296875,4.154296875c1.014837265-.3926362991,2.111284256-.6171875,3.26171875-.6171875,5.0716972351,0,9.18359375,4.1793289185,9.18359375,9.333984375,0,1.1154575348-.2035121918,2.1802787781-.556640625,3.171875Z"/>
  <path class="cls-1" d="M18.0078125,23.462890625c.3773460388,1.8291378021,1.8073654175,3.2620887756,3.6171875,3.6171875l-3.6171875-3.6171875Z"/>
  <path class="cls-1" d="M7.82421875,13.279296875c-3.2797040939,2.3846187592-5.9756711721,5.5454235077-7.82421875,9.220703125,4.1799516678,8.3105716705,12.6862630844,14,22.5,14,2.5813064575,0,5.0705566406-.3974990845,7.416015625-1.12890625l-4.154296875-4.154296875c-1.014837265.3926353455-2.111284256.6171875-3.26171875.6171875-5.0716972351,0-9.18359375-4.1793289185-9.18359375-9.333984375,0-1.1154575348.2035121918-2.1802787781.556640625-3.171875l-6.048828125-6.048828125Z"/>
  <rect class="cls-2" x="20.2501145654" y=".0011482181" width="4.4997700875" height="44.9977027821" transform="translate(-9.3198049915 22.4999996092) rotate(-45)"/>
</svg>

<?xml version="1.0" encoding="UTF-8" standalone="no"?>
<svg width="45px" height="45px">
  <path style="fill-rule:evenodd;stroke-width:3.78054" d="M 23.375 17.919922 L 26.992188 21.537109 C 26.614841 19.707971 25.184823 18.27502 23.375 17.919922 z"/>
  <path style="fill-rule:evenodd;stroke-width:3.78054" d="M 31.126953 25.671875 L 37.175781 31.720703 C 40.455485 29.336084 43.151452 26.175279 45 22.5 C 40.820048 14.189428 32.313738 8.5 22.5 8.5 C 19.918694 8.5 17.429443 8.8975003 15.083984 9.6289062 L 19.238281 13.783203 C 20.253118 13.390567 21.349565 13.166016 22.5 13.166016 C 27.571697 13.166016 31.683594 17.345345 31.683594 22.5 C 31.683594 23.615458 31.480082 24.680279 31.126953 25.671875 z"/>
  <path style="fill-rule:evenodd;stroke-width:3.78054" d="M 18.007812 23.462891 C 18.385159 25.292029 19.815177 26.72498 21.625 27.080078 L 18.007812 23.462891 z"/>
  <path style="fill-rule:evenodd;stroke-width:3.78054" d="M 7.8242188 13.279297 C 4.5445145 15.663916 1.8485476 18.824721 0 22.5 C 4.1799517 30.810572 12.686263 36.5 22.5 36.5 C 25.081306 36.5 27.570557 36.1025 29.916016 35.371094 L 25.761719 31.216797 C 24.746882 31.609433 23.650435 31.833984 22.5 31.833984 C 17.428303 31.833984 13.316406 27.654655 13.316406 22.5 C 13.316406 21.384542 13.519918 20.319721 13.873047 19.328125 L 7.8242188 13.279297 z"/>
  <rect style="stroke-width:7.39808;stroke-linecap:round;stroke-linejoin:round;stroke-miterlimit:0.5;fill-opacity:1" width="4.4997702" height="44.997704" x="-2.2498851" y="9.3209534" transform="rotate(-45)"/>
</svg>
